X: 34160
T: Reel For Grace
R: reel
M: 4/4
K: Dmajor
|:DF F2 ADFA|df f2 afed|f2 ed Bd d2|fedB BAFE|
DF F2 ADFA|df f2 afed|f2 ed Bd d2|1 d2 fe dBAB:|2 d2 fe fd d2||
|:faaf a2 ba|afef dBAB|faaf a2 ba|afde fe e2|
f3d e2 fe|dfed B3d|AF F2 ABde|faeg fd d2:|

